austria/municipalities/40605.svg

<?xml version="1.0" encoding="UTF-8"?>
<!DOCTYPE svg PUBLIC "-//W3C//DTD SVG 1.1//EN" "http://www.w3.org/Graphics/SVG/1.1/DTD/svg11.dtd">
<svg xmlns="http://www.w3.org/2000/svg" version="1.1" width="166px" height="207px" style="shape-rendering:geometricPrecision; text-rendering:geometricPrecision; image-rendering:optimizeQuality; fill-rule:evenodd; clip-rule:evenodd" xmlns:xlink="http://www.w3.org/1999/xlink">
<g><path style="opacity:1" fill="#000000" d="M -0.5,-0.5 C 54.8333,-0.5 110.167,-0.5 165.5,-0.5C 165.5,44.1667 165.5,88.8333 165.5,133.5C 157.503,172.498 134.169,196.831 95.5,206.5C 86.8333,206.5 78.1667,206.5 69.5,206.5C 29.593,196.928 6.25968,171.928 -0.5,131.5C -0.5,87.5 -0.5,43.5 -0.5,-0.5 Z"/></g>
<g><path style="opacity:1" fill="#fefffe" d="M 38.5,38.5 C 38.1667,38.5 37.8333,38.5 37.5,38.5C 36.5,38.5 35.5,38.5 34.5,38.5C 34.2965,40.3904 34.9632,41.8904 36.5,43C 39.8891,42.8127 43.2224,42.9794 46.5,43.5C 40.6412,51.22 36.9745,59.8867 35.5,69.5C 35.6799,70.5539 36.0133,71.5539 36.5,72.5C 31.5221,73.0909 26.5221,72.7576 21.5,71.5C 18.4557,72.3484 15.9557,74.015 14,76.5C 13.3982,89.5785 12.2315,102.578 10.5,115.5C 12.9628,115.219 15.1295,114.219 17,112.5C 18.5788,113.8 19.7455,113.466 20.5,111.5C 24.6945,107.375 24.3612,103.375 19.5,99.5C 20.935,98.0715 21.935,96.4048 22.5,94.5C 20.8036,90.6827 20.1369,86.6827 20.5,82.5C 22.1992,82.3398 23.8659,82.5065 25.5,83C 26.9752,85.3092 28.6419,87.4759 30.5,89.5C 28.9713,91.7073 28.3047,94.2073 28.5,97C 29.5189,101.195 29.5189,105.362 28.5,109.5C 30.4962,114.843 30.4962,120.343 28.5,126C 28.8333,126.5 29.1667,127 29.5,127.5C 30.8139,126.687 31.9805,125.687 33,124.5C 32.7374,125.951 32.9041,127.284 33.5,128.5C 35.7721,127.559 37.7721,126.226 39.5,124.5C 40.2923,119.667 40.2923,115 39.5,110.5C 38.0524,108.491 36.7191,106.324 35.5,104C 36.1667,102.333 36.8333,100.667 37.5,99C 44.7894,99.0877 51.956,100.254 59,102.5C 61.3157,101.533 63.649,100.533 66,99.5C 71.083,100.307 76.2497,100.807 81.5,101C 86.9854,109.074 94.3187,114.741 103.5,118C 108.333,122.833 113.167,127.667 118,132.5C 118.333,134.833 118.667,137.167 119,139.5C 122.021,143.253 123.188,147.586 122.5,152.5C 125.292,152.548 127.125,151.215 128,148.5C 129.11,150.037 130.61,150.703 132.5,150.5C 134.042,144.345 132.042,140.011 126.5,137.5C 128.256,135.809 128.756,133.809 128,131.5C 124.131,128.887 121.964,125.553 121.5,121.5C 128.848,125.003 133.348,130.67 135,138.5C 139.207,142.943 141.373,148.276 141.5,154.5C 142.478,154.023 143.311,153.357 144,152.5C 144.333,150.5 144.667,148.5 145,146.5C 145.583,148.002 146.416,149.335 147.5,150.5C 152.624,143.95 151.291,139.783 143.5,138C 147.241,137.597 148.241,135.764 146.5,132.5C 144.166,130.559 141.666,128.893 139,127.5C 137.284,124.36 135.951,121.027 135,117.5C 132.705,114.935 129.872,113.269 126.5,112.5C 122.451,108.64 121.451,104.14 123.5,99C 123.567,95.0273 122.901,91.194 121.5,87.5C 123.598,86.3679 125.765,85.3679 128,84.5C 133.951,86.4682 135.284,85.1349 132,80.5C 127.398,75.6934 122.398,75.36 117,79.5C 103.392,75.1116 89.5582,71.6116 75.5,69C 72.5,67.5 69.5,66 66.5,64.5C 65.2087,58.4756 65.2087,52.4756 66.5,46.5C 67,46.1667 67.5,45.8333 68,45.5C 69.6667,46.1667 71.3333,46.8333 73,47.5C 74.0588,47.3699 74.8921,46.8699 75.5,46C 74.4527,43.0212 73.1194,40.1879 71.5,37.5C 74.1062,36.3483 76.7728,36.1816 79.5,37C 83.5777,40.5727 88.2444,43.0727 93.5,44.5C 94.9305,41.7274 94.2638,39.5607 91.5,38C 95.1667,37.3333 98.8333,37.3333 102.5,38C 104.549,42.0623 107.715,44.5623 112,45.5C 113.728,45.5463 115.228,45.0463 116.5,44C 108.51,36.4525 110.51,33.7859 122.5,36C 127.5,40.6667 132.5,40.6667 137.5,36C 137.167,35.6667 136.833,35.3333 136.5,35C 132.917,34.5419 129.917,33.0419 127.5,30.5C 131.579,27.0802 135.912,24.0802 140.5,21.5C 136.555,20.5091 132.555,20.1758 128.5,20.5C 130.963,18.5389 133.297,16.3722 135.5,14C 132.118,13.8236 128.785,13.3236 125.5,12.5C 126.738,9.8345 126.738,7.16783 125.5,4.5C 124.048,5.93972 123.048,7.60638 122.5,9.5C 121.167,9.5 120.5,10.1667 120.5,11.5C 115.85,13.2061 111.017,14.5394 106,15.5C 105.167,15.1667 104.333,14.8333 103.5,14.5C 106.19,11.8154 109.19,9.48211 112.5,7.5C 113.739,5.99279 113.405,4.82612 111.5,4C 128.163,3.50007 144.83,3.3334 161.5,3.5C 161.667,47.8346 161.5,92.1679 161,136.5C 159.112,144.724 156.612,152.724 153.5,160.5C 147.963,162.291 142.296,162.791 136.5,162C 128.744,159.024 120.744,157.191 112.5,156.5C 101.678,158.247 90.8449,159.914 80,161.5C 75.7776,161.441 71.6109,160.941 67.5,160C 60.3113,157.596 52.9779,155.762 45.5,154.5C 36.0308,157.617 26.3642,159.951 16.5,161.5C 15.1667,161.167 13.8333,160.833 12.5,160.5C 8.59883,152.577 5.7655,144.244 4,135.5C 3.50001,91.5013 3.33334,47.5013 3.5,3.5C 39.1682,3.33335 74.8349,3.50001 110.5,4C 103.264,5.23438 97.5978,8.90105 93.5,15C 90.0033,16.9325 86.3366,17.9325 82.5,18C 85.2174,13.6156 88.8841,10.2823 93.5,8C 86.3636,6.56716 80.3636,8.56716 75.5,14C 73.291,17.9197 70.291,21.0864 66.5,23.5C 65.412,20.2788 64.0786,17.2788 62.5,14.5C 60.1667,15.5 58.5,17.1667 57.5,19.5C 53.0999,19.9636 49.4333,21.797 46.5,25C 41.8024,25.3511 37.1358,25.8511 32.5,26.5C 32.3359,29.1873 32.5026,31.854 33,34.5C 33.6891,35.3567 34.5224,36.0233 35.5,36.5C 37.198,35.3192 38.8647,35.3192 40.5,36.5C 39.7573,37.1818 39.0906,37.8485 38.5,38.5 Z"/></g>
<g><path style="opacity:1" fill="#cb0000" d="M 120.5,11.5 C 121.833,11.5 122.5,10.8333 122.5,9.5C 123.895,7.94564 124.561,8.27898 124.5,10.5C 123.349,12.3254 122.682,14.3254 122.5,16.5C 124.857,16.3367 127.19,16.5034 129.5,17C 129.167,17.3333 128.833,17.6667 128.5,18C 120.83,19.1301 113.164,20.2967 105.5,21.5C 103.657,21.2206 101.823,20.8872 100,20.5C 91.3106,22.2926 82.8106,24.6259 74.5,27.5C 72.2685,27.1472 70.2685,26.3139 68.5,25C 72.2814,21.7943 75.6148,18.1276 78.5,14C 81.2607,11.779 84.2607,10.4456 87.5,10C 84.2694,12.7273 81.6028,15.894 79.5,19.5C 87.8741,20.816 94.5408,17.9827 99.5,11C 102.717,8.21568 106.384,6.88234 110.5,7C 105.793,8.20675 102.459,11.0401 100.5,15.5C 100.709,16.086 101.043,16.586 101.5,17C 107.82,17.5694 113.82,16.4027 119.5,13.5C 120.298,13.0431 120.631,12.3764 120.5,11.5 Z"/></g>
<g><path style="opacity:1" fill="#000000" d="M 122.5,9.5 C 122.5,10.8333 121.833,11.5 120.5,11.5C 120.5,10.1667 121.167,9.5 122.5,9.5 Z"/></g>
<g><path style="opacity:1" fill="#cb0000" d="M 60.5,17.5 C 62.1852,18.1837 63.1852,19.517 63.5,21.5C 62.3112,22.4287 60.9778,22.762 59.5,22.5C 59.366,20.7085 59.6993,19.0418 60.5,17.5 Z"/></g>
<g><path style="opacity:1" fill="#fefffe" d="M 128.5,20.5 C 125.697,21.8044 123.364,23.8044 121.5,26.5C 117.876,27.5141 114.21,27.5141 110.5,26.5C 100.227,28.297 89.8941,28.797 79.5,28C 85.4343,26.1719 91.4343,24.5053 97.5,23C 108.05,22.6088 118.384,21.7755 128.5,20.5 Z"/></g>
<g><path style="opacity:1" fill="#cb0000" d="M 67.5,42.5 C 65.691,40.9009 64.3576,38.9009 63.5,36.5C 62.2014,39.4338 62.8681,41.9338 65.5,44C 63.9636,49.1892 62.9636,54.5226 62.5,60C 62.9031,62.8872 64.2365,65.2205 66.5,67C 69.6179,68.0587 72.6179,69.3921 75.5,71C 89.4982,73.7913 103.332,77.2913 117,81.5C 119.761,80.6916 122.428,79.6916 125,78.5C 127.428,79.63 129.595,81.13 131.5,83C 130.328,83.3534 129.162,83.1868 128,82.5C 124.541,84.9455 121.208,84.9455 118,82.5C 117.833,82.8333 117.667,83.1667 117.5,83.5C 121.384,90.606 122.384,98.106 120.5,106C 121.444,108.722 122.777,111.222 124.5,113.5C 127.055,114.76 129.555,116.094 132,117.5C 133.993,121.465 135.993,125.465 138,129.5C 140,130.833 142,132.167 144,133.5C 144.309,135.513 143.642,135.846 142,134.5C 140.165,136.727 140.665,138.56 143.5,140C 148.429,140.255 149.595,142.421 147,146.5C 143.914,142.837 142.581,143.837 143,149.5C 141.433,143.386 139.1,137.719 136,132.5C 133.203,128.701 130.036,125.201 126.5,122C 117.578,117.871 108.911,113.205 100.5,108C 95.1667,102 89.8333,96 84.5,90C 82.6354,88.6986 80.6354,88.3653 78.5,89C 81.9213,90.5886 84.9213,92.7553 87.5,95.5C 85.7801,96.934 83.7801,97.7674 81.5,98C 76.5,98.6667 71.5,98.6667 66.5,98C 67.4009,95.4293 68.7342,93.096 70.5,91C 70,90.8333 69.5,90.6667 69,90.5C 66.6794,93.7258 64.1794,96.8924 61.5,100C 54.4818,99.2748 47.4818,98.1081 40.5,96.5C 36.142,97.0313 34.142,99.5313 34.5,104C 34.0454,106.923 35.0454,109.09 37.5,110.5C 37.0133,111.446 36.6799,112.446 36.5,113.5C 39.2541,117.617 39.0874,121.617 36,125.5C 35.6667,123.167 35.3333,120.833 35,118.5C 34,119.833 33,121.167 32,122.5C 31.4375,120.134 31.6042,117.801 32.5,115.5C 31.3639,113.682 30.6972,111.682 30.5,109.5C 30.5966,103.516 30.93,97.5161 31.5,91.5C 37.3311,91.0772 42.9978,89.9105 48.5,88C 50.5852,86.9586 52.2519,85.4586 53.5,83.5C 53.3333,83.1667 53.1667,82.8333 53,82.5C 50.5521,84.9983 47.7187,86.4983 44.5,87C 36.9459,77.5638 35.7792,67.3971 41,56.5C 43.2497,52.3318 45.7497,48.3318 48.5,44.5C 49.6136,43.2241 50.6136,43.2241 51.5,44.5C 53.7812,44.9227 55.4479,44.256 56.5,42.5C 52.3435,42.6685 48.3435,42.0018 44.5,40.5C 41.6423,41.7429 38.9756,41.5763 36.5,40C 37.056,39.6174 37.3893,39.1174 37.5,38.5C 37.8333,38.5 38.1667,38.5 38.5,38.5C 39.8333,38.5 41.1667,38.5 42.5,38.5C 42.5,37.1667 42.5,35.8333 42.5,34.5C 39.8333,34.5 37.1667,34.5 34.5,34.5C 34.5,33.1667 34.5,31.8333 34.5,30.5C 35.552,30.6495 36.552,30.4828 37.5,30C 36.1667,29.6667 34.8333,29.3333 33.5,29C 37.3808,27.8099 41.3808,27.1432 45.5,27C 48.3512,25.4696 51.1846,23.9696 54,22.5C 58.1181,23.7913 62.2848,24.958 66.5,26C 67.7836,27.2975 67.6169,28.4642 66,29.5C 65.3333,31.1667 65.3333,32.8333 66,34.5C 69.661,37.1625 72.161,40.6625 73.5,45C 71.1788,45.008 69.1788,44.1747 67.5,42.5 Z"/></g>
<g><path style="opacity:1" fill="#cb0000" d="M 128.5,22.5 C 130.527,22.3379 132.527,22.5045 134.5,23C 130.591,24.7819 127.258,27.2819 124.5,30.5C 126.828,33.3354 129.828,35.1687 133.5,36C 129.651,38.1635 126.317,37.4969 123.5,34C 118.07,33.3625 112.736,33.8625 107.5,35.5C 108.547,38.4302 110.213,40.9302 112.5,43C 108.439,42.2987 105.439,39.9654 103.5,36C 98.2497,35.8071 93.083,35.3071 88,34.5C 87.8333,35 87.6667,35.5 87.5,36C 88.9958,37.3307 90.3291,38.8307 91.5,40.5C 91.1667,40.8333 90.8333,41.1667 90.5,41.5C 87.1662,40.1686 84.1662,38.3353 81.5,36C 77.0823,35.7923 72.749,35.1256 68.5,34C 66.9761,30.8838 67.9761,29.0505 71.5,28.5C 84.489,31.1042 97.489,31.1042 110.5,28.5C 114.156,29.2858 117.823,29.4525 121.5,29C 123.729,26.5997 126.063,24.433 128.5,22.5 Z"/></g>
<g><path style="opacity:1" fill="#000000" d="M 49.5,26.5 C 51.767,27.4231 54.1003,28.2564 56.5,29C 54.5595,29.3036 52.8928,30.1369 51.5,31.5C 49.3229,30.1853 48.6562,28.5187 49.5,26.5 Z"/></g>
<g><path style="opacity:1" fill="#000000" d="M 67.5,42.5 C 64.5834,35.4708 65.2501,34.9708 69.5,41C 69.1639,42.0299 68.4972,42.5299 67.5,42.5 Z"/></g>
<g><path style="opacity:1" fill="#000000" d="M 56.5,42.5 C 56.5216,40.1996 57.5216,39.033 59.5,39C 59.0257,40.7286 58.0257,41.8953 56.5,42.5 Z"/></g>
<g><path style="opacity:1" fill="#000000" d="M 51.5,44.5 C 51.6358,47.5242 50.3025,49.0242 47.5,49C 48.7332,47.3333 50.0665,45.8333 51.5,44.5 Z"/></g>
<g><path style="opacity:1" fill="#000000" d="M 45.5,51.5 C 46.0967,51.7352 46.4301,52.2352 46.5,53C 44.6878,57.4556 43.0211,61.9556 41.5,66.5C 41.1667,66 40.8333,65.5 40.5,65C 41.8802,60.3558 43.5468,55.8558 45.5,51.5 Z"/></g>
<g><path style="opacity:1" fill="#cb0000" d="M 20.5,111.5 C 19.8354,109.631 19.1687,107.631 18.5,105.5C 16.9309,106.714 16.0976,108.381 16,110.5C 15.1627,112.007 13.9961,112.507 12.5,112C 14.655,106.131 14.9884,100.131 13.5,94C 13.6301,92.9412 14.1301,92.1079 15,91.5C 15.3333,86.5 15.6667,81.5 16,76.5C 17.7467,75.6699 19.4134,74.6699 21,73.5C 25.6667,74.1667 30.3333,74.8333 35,75.5C 37.4034,79.5148 39.9034,83.5148 42.5,87.5C 39.2156,88.657 35.8823,88.8236 32.5,88C 30.155,85.9864 28.155,83.653 26.5,81C 23.6529,80.0561 21.1529,80.5561 19,82.5C 17.9917,86.7709 18.4917,90.7709 20.5,94.5C 16.3967,97.7039 16.5633,100.704 21,103.5C 21.4298,106.192 21.2631,108.859 20.5,111.5 Z"/></g>
<g><path style="opacity:1" fill="#000000" d="M 114.5,84.5 C 116.337,84.6395 116.67,85.3061 115.5,86.5C 114.702,86.0431 114.369,85.3764 114.5,84.5 Z"/></g>
<g><path style="opacity:1" fill="#000000" d="M 115.5,88.5 C 116.189,87.2264 117.023,87.2264 118,88.5C 118.667,90.1667 118.667,91.8333 118,93.5C 117.015,91.8251 116.181,90.1585 115.5,88.5 Z"/></g>
<g><path style="opacity:1" fill="#cb0000" d="M 87.5,97.5 C 94.9648,106.277 103.965,113.277 114.5,118.5C 118.335,123.499 122.335,128.332 126.5,133C 124.621,134.997 124.288,137.164 125.5,139.5C 129.323,140.467 130.823,142.801 130,146.5C 129,145.5 128,144.5 127,143.5C 126.83,145.715 126.163,147.715 125,149.5C 123.055,142.607 120.722,135.941 118,129.5C 110.666,120.6 101.833,113.766 91.5,109C 88.462,106.297 85.7954,103.297 83.5,100C 85.0664,99.3918 86.3998,98.5585 87.5,97.5 Z"/></g>
<g><path style="opacity:1" fill="#fefffe" d="M -0.5,131.5 C 6.25968,171.928 29.593,196.928 69.5,206.5C 46.1667,206.5 22.8333,206.5 -0.5,206.5C -0.5,181.5 -0.5,156.5 -0.5,131.5 Z"/></g>
<g><path style="opacity:1" fill="#fefffe" d="M 165.5,133.5 C 165.5,157.833 165.5,182.167 165.5,206.5C 142.167,206.5 118.833,206.5 95.5,206.5C 134.169,196.831 157.503,172.498 165.5,133.5 Z"/></g>
<g><path style="opacity:1" fill="#003266" d="M 42.5,156.5 C 54.4063,159.141 66.4063,161.475 78.5,163.5C 90.1943,162.047 101.861,160.38 113.5,158.5C 121.075,159.25 128.408,161.083 135.5,164C 140.622,164.308 145.622,164.475 150.5,164.5C 148.081,169.085 145.081,173.252 141.5,177C 130.925,177.83 120.425,177.33 110,175.5C 100.732,177.354 91.3987,178.687 82,179.5C 78.5,179.333 75,179.167 71.5,179C 63.0204,176.213 54.3537,174.38 45.5,173.5C 38.8675,174.097 32.3675,175.431 26,177.5C 20.7404,174.239 16.9071,169.739 14.5,164C 24.3717,163.034 33.705,160.534 42.5,156.5 Z"/></g>
<g><path style="opacity:1" fill="#fefffe" d="M 37.5,175.5 C 43.1764,175.334 48.8431,175.501 54.5,176C 63.2108,179.309 72.2108,181.142 81.5,181.5C 90.8823,180.557 100.216,179.224 109.5,177.5C 119.1,178.923 128.767,179.756 138.5,180C 111.98,203.834 81.9798,209.167 48.5,196C 40.6065,191.44 33.2732,186.107 26.5,180C 30.4493,178.943 34.1159,177.443 37.5,175.5 Z"/></g>
</svg>

<svg xmlns="http://www.w3.org/2000/svg" width="166" height="207" style="shape-rendering:geometricPrecision;text-rendering:geometricPrecision;image-rendering:optimizeQuality;fill-rule:evenodd;clip-rule:evenodd"><path style="opacity:1" d="M-.5-.5h166v134c-7.997 38.998-31.331 63.331-70 73h-26c-39.907-9.572-63.24-34.572-70-75V-.5z"/><path style="opacity:1" fill="#fefffe" d="M38.5 38.5h-4c-.203 1.89.463 3.39 2 4.5 3.39-.187 6.722-.02 10 .5-5.859 7.72-9.526 16.387-11 26 .18 1.054.513 2.054 1 3-4.978.59-9.978.258-15-1-3.044.848-5.544 2.515-7.5 5a448.86 448.86 0 0 1-3.5 39c2.463-.281 4.63-1.281 6.5-3 1.579 1.3 2.745.966 3.5-1 4.195-4.125 3.861-8.125-1-12a11.621 11.621 0 0 0 3-5c-1.696-3.817-2.363-7.817-2-12 1.7-.16 3.366.007 5 .5a47.053 47.053 0 0 0 5 6.5c-1.529 2.207-2.195 4.707-2 7.5 1.019 4.195 1.019 8.362 0 12.5 1.996 5.343 1.996 10.843 0 16.5l1 1.5a14.984 14.984 0 0 0 3.5-3c-.263 1.451-.096 2.784.5 4a18.329 18.329 0 0 0 6-4c.792-4.833.792-9.5 0-14a54.037 54.037 0 0 1-4-6.5l2-5c7.29.088 14.456 1.254 21.5 3.5a413.47 413.47 0 0 0 7-3c5.083.807 10.25 1.307 15.5 1.5 5.485 8.074 12.819 13.741 22 17l14.5 14.5 1 7c3.021 3.753 4.188 8.086 3.5 13 2.792.048 4.625-1.285 5.5-4 1.11 1.537 2.61 2.203 4.5 2 1.542-6.155-.458-10.489-6-13 1.756-1.691 2.256-3.691 1.5-6-3.869-2.613-6.036-5.947-6.5-10 7.348 3.503 11.848 9.17 13.5 17 4.207 4.443 6.373 9.776 6.5 16a7.248 7.248 0 0 0 2.5-2l1-6a12.403 12.403 0 0 0 2.5 4c5.124-6.55 3.791-10.717-4-12.5 3.741-.403 4.741-2.236 3-5.5a42.43 42.43 0 0 0-7.5-5 45.435 45.435 0 0 1-4-10c-2.295-2.565-5.128-4.231-8.5-5-4.049-3.86-5.049-8.36-3-13.5a30.679 30.679 0 0 0-2-11.5 57.518 57.518 0 0 1 6.5-3c5.951 1.968 7.284.635 4-4-4.602-4.807-9.602-5.14-15-1A333.596 333.596 0 0 0 75.5 69l-9-4.5c-1.291-6.024-1.291-12.024 0-18l1.5-1 5 2c1.059-.13 1.892-.63 2.5-1.5a45.975 45.975 0 0 0-4-8.5c2.606-1.152 5.273-1.318 8-.5 4.078 3.573 8.744 6.073 14 7.5 1.43-2.773.764-4.94-2-6.5a30.499 30.499 0 0 1 11 0c2.049 4.062 5.215 6.562 9.5 7.5 1.728.046 3.228-.454 4.5-1.5-7.99-7.547-5.99-10.214 6-8 5 4.667 10 4.667 15 0l-1-1c-3.583-.458-6.583-1.958-9-4.5a85.214 85.214 0 0 1 13-9 36.872 36.872 0 0 0-12-1 63.697 63.697 0 0 0 7-6.5 52.204 52.204 0 0 1-10-1.5c1.238-2.665 1.238-5.332 0-8-1.452 1.44-2.452 3.106-3 5-1.333 0-2 .667-2 2a92.541 92.541 0 0 1-14.5 4l-2.5-1a46.513 46.513 0 0 1 9-7c1.239-1.507.905-2.674-1-3.5 16.663-.5 33.33-.667 50-.5.167 44.335 0 88.668-.5 133a162.121 162.121 0 0 1-7.5 24c-5.537 1.791-11.204 2.291-17 1.5a86.936 86.936 0 0 0-24-5.5 2216.48 2216.48 0 0 1-32.5 5 59.597 59.597 0 0 1-12.5-1.5 145.73 145.73 0 0 0-22-5.5 183.78 183.78 0 0 1-29 7l-4-1a102.085 102.085 0 0 1-8.5-25c-.5-43.999-.667-87.999-.5-132 35.668-.167 71.335 0 107 .5-7.236 1.234-12.902 4.901-17 11-3.497 1.933-7.163 2.933-11 3 2.717-4.384 6.384-7.718 11-10-7.136-1.433-13.136.567-18 6-2.209 3.92-5.209 7.086-9 9.5-1.088-3.221-2.421-6.221-4-9-2.333 1-4 2.667-5 5-4.4.464-8.067 2.297-11 5.5-4.698.351-9.364.851-14 1.5a32.437 32.437 0 0 0 .5 8 7.253 7.253 0 0 0 2.5 2c1.698-1.18 3.365-1.18 5 0a30.943 30.943 0 0 0-2 2z"/><path style="opacity:1" fill="#cb0000" d="M120.5 11.5c1.333 0 2-.667 2-2 1.395-1.554 2.061-1.221 2 1a13.142 13.142 0 0 0-2 6c2.357-.163 4.69.003 7 .5l-1 1c-7.67 1.13-15.336 2.297-23 3.5a95.03 95.03 0 0 1-5.5-1 204.101 204.101 0 0 0-25.5 7c-2.231-.353-4.231-1.186-6-2.5a57.645 57.645 0 0 0 10-11c2.76-2.221 5.76-3.554 9-4a36.257 36.257 0 0 0-8 9.5c8.374 1.316 15.04-1.517 20-8.5 3.217-2.784 6.884-4.118 11-4-4.707 1.207-8.041 4.04-10 8.5a3.647 3.647 0 0 0 1 1.5c6.32.57 12.32-.597 18-3.5.798-.457 1.131-1.124 1-2z"/><path style="opacity:1" d="M122.5 9.5c0 1.333-.667 2-2 2 0-1.333.667-2 2-2z"/><path style="opacity:1" fill="#cb0000" d="M60.5 17.5c1.685.684 2.685 2.017 3 4-1.189.929-2.522 1.262-4 1-.134-1.791.2-3.458 1-5z"/><path style="opacity:1" fill="#fefffe" d="M128.5 20.5c-2.803 1.304-5.136 3.304-7 6-3.624 1.014-7.29 1.014-11 0a124.132 124.132 0 0 1-31 1.5 336.101 336.101 0 0 1 18-5 352.003 352.003 0 0 0 31-2.5z"/><path style="opacity:1" fill="#cb0000" d="M67.5 42.5c-1.809-1.6-3.142-3.6-4-6-1.299 2.934-.632 5.434 2 7.5a79.963 79.963 0 0 0-3 16c.403 2.887 1.737 5.22 4 7a54.214 54.214 0 0 1 9 4A420.063 420.063 0 0 1 117 81.5a57.312 57.312 0 0 0 8-3 23.162 23.162 0 0 1 6.5 4.5c-1.172.353-2.338.187-3.5-.5-3.459 2.445-6.792 2.445-10 0l-.5 1c3.884 7.106 4.884 14.606 3 22.5a27.038 27.038 0 0 0 4 7.5 133.394 133.394 0 0 1 7.5 4c1.993 3.965 3.993 7.965 6 12l6 4c.309 2.013-.358 2.346-2 1-1.835 2.227-1.335 4.06 1.5 5.5 4.929.255 6.095 2.421 3.5 6.5-3.086-3.663-4.419-2.663-4 3-1.567-6.114-3.9-11.781-7-17a70.588 70.588 0 0 0-9.5-10.5 244.552 244.552 0 0 1-26-14l-16-18c-1.865-1.301-3.865-1.635-6-1a28.987 28.987 0 0 1 9 6.5c-1.72 1.434-3.72 2.267-6 2.5-5 .667-10 .667-15 0 .9-2.57 2.234-4.904 4-7l-1.5-.5a137.671 137.671 0 0 1-7.5 9.5 172.46 172.46 0 0 1-21-3.5c-4.358.531-6.358 3.031-6 7.5-.455 2.923.545 5.09 3 6.5a10.31 10.31 0 0 0-1 3c2.754 4.117 2.587 8.117-.5 12l-1-7-3 4c-.563-2.366-.396-4.699.5-7-1.136-1.818-1.803-3.818-2-6 .097-5.984.43-11.984 1-18a66.2 66.2 0 0 0 17-3.5 12.38 12.38 0 0 0 5-4.5l-.5-1c-2.448 2.498-5.281 3.998-8.5 4.5-7.554-9.436-8.72-19.603-3.5-30.5 2.25-4.168 4.75-8.168 7.5-12 1.114-1.276 2.114-1.276 3 0 2.281.423 3.948-.244 5-2a29.355 29.355 0 0 1-12-2c-2.858 1.243-5.524 1.076-8-.5.556-.383.89-.883 1-1.5h5v-4h-8v-4a4.932 4.932 0 0 0 3-.5l-4-1a46.227 46.227 0 0 1 12-2c2.851-1.53 5.685-3.03 8.5-4.5A211.006 211.006 0 0 0 66.5 26c1.284 1.297 1.117 2.464-.5 3.5-.667 1.667-.667 3.333 0 5 3.661 2.663 6.161 6.163 7.5 10.5-2.321.008-4.321-.825-6-2.5z"/><path style="opacity:1" fill="#cb0000" d="M128.5 22.5a18.437 18.437 0 0 1 6 .5c-3.909 1.782-7.242 4.282-10 7.5 2.328 2.835 5.328 4.669 9 5.5-3.849 2.163-7.183 1.497-10-2a38.131 38.131 0 0 0-16 1.5c1.047 2.93 2.713 5.43 5 7.5-4.061-.701-7.061-3.035-9-7A128.94 128.94 0 0 1 88 34.5l-.5 1.5a25.918 25.918 0 0 1 4 4.5l-1 1a31.007 31.007 0 0 1-9-5.5 61.99 61.99 0 0 1-13-2c-1.524-3.116-.524-4.95 3-5.5 12.989 2.604 25.989 2.604 39 0a32.88 32.88 0 0 0 11 .5 62.929 62.929 0 0 1 7-6.5z"/><path style="opacity:1" d="M49.5 26.5c2.267.923 4.6 1.756 7 2.5-1.94.304-3.607 1.137-5 2.5-2.177-1.315-2.844-2.981-2-5zM67.5 42.5c-2.917-7.03-2.25-7.53 2-1.5-.336 1.03-1.003 1.53-2 1.5zM56.5 42.5c.022-2.3 1.022-3.467 3-3.5-.474 1.729-1.474 2.895-3 3.5zM51.5 44.5c.136 3.024-1.197 4.524-4 4.5a32.614 32.614 0 0 1 4-4.5zM45.5 51.5c.597.235.93.735 1 1.5a227.44 227.44 0 0 0-5 13.5l-1-1.5a108.485 108.485 0 0 1 5-13.5z"/><path style="opacity:1" fill="#cb0000" d="M20.5 111.5a168.724 168.724 0 0 1-2-6c-1.57 1.214-2.402 2.881-2.5 5-.837 1.507-2.004 2.007-3.5 1.5 2.155-5.869 2.488-11.869 1-18 .13-1.059.63-1.892 1.5-2.5l1-15a30.393 30.393 0 0 0 5-3l14 2a371.85 371.85 0 0 0 7.5 12c-3.284 1.157-6.618 1.324-10 .5a30.318 30.318 0 0 1-6-7c-2.847-.944-5.347-.444-7.5 1.5-1.008 4.27-.508 8.27 1.5 12-4.103 3.204-3.937 6.204.5 9 .43 2.692.263 5.359-.5 8z"/><path style="opacity:1" d="M114.5 84.5c1.837.14 2.17.806 1 2-.798-.457-1.131-1.124-1-2zM115.5 88.5c.689-1.274 1.523-1.274 2.5 0 .667 1.667.667 3.333 0 5a39.405 39.405 0 0 1-2.5-5z"/><path style="opacity:1" fill="#cb0000" d="M87.5 97.5c7.465 8.777 16.465 15.777 27 21a253.884 253.884 0 0 0 12 14.5c-1.879 1.997-2.212 4.164-1 6.5 3.823.967 5.323 3.301 4.5 7l-3-3c-.17 2.215-.837 4.215-2 6a169.716 169.716 0 0 0-7-20c-7.334-8.9-16.167-15.734-26.5-20.5a51.073 51.073 0 0 1-8-9c1.566-.608 2.9-1.442 4-2.5z"/><path style="opacity:1" fill="#fefffe" d="M-.5 131.5c6.76 40.428 30.093 65.428 70 75h-70v-75zM165.5 133.5v73h-70c38.669-9.669 62.003-34.002 70-73z"/><path style="opacity:1" fill="#003266" d="M42.5 156.5a700.154 700.154 0 0 0 36 7 967.882 967.882 0 0 0 35-5 77.65 77.65 0 0 1 22 5.5c5.122.308 10.122.475 15 .5a55.492 55.492 0 0 1-9 12.5 124.93 124.93 0 0 1-31.5-1.5 254.402 254.402 0 0 1-28 4l-10.5-.5a121.517 121.517 0 0 0-26-5.5 88.617 88.617 0 0 0-19.5 4c-5.26-3.261-9.093-7.761-11.5-13.5 9.872-.966 19.205-3.466 28-7.5z"/><path style="opacity:1" fill="#fefffe" d="M37.5 175.5a145.05 145.05 0 0 1 17 .5 84.727 84.727 0 0 0 27 5.5 338.965 338.965 0 0 0 28-4 238.334 238.334 0 0 0 29 2.5c-26.52 23.834-56.52 29.167-90 16a129.5 129.5 0 0 1-22-16c3.95-1.057 7.616-2.557 11-4.5z"/></svg>
